!!!!SEGMENT:26Matuhitoki_c.krn
!!!OTL: 松ひとき
!!!OPR:Eiga Banso Kyokusyu,jidai-geki,zenpen
!!!YOY:1929
!!!ONB:Sentimental
**kern
*clefG2
*C:
*M4/4
*met(c)
=1
!LO:TX:a:B:t=Andante
4ff#
4ff#
4ff#
4ff#
=2
4gg
4ff#
4ee
4cc
=3
4b
4a
4b
4cc#X
=4
4ee
4ff#
8ff#L
8eeJ
4cc
=5
2b
4r
4b
=6
2b
4r
4b
=7
2b
4f#
4a
=8
2b
4r
4cc
=9
2cc
4ee
4cc
=10
4b
4a
4.b
8g
=11
4f#
4r
4cc
4b
=12
4a
8bL
8aJ
4b
4cc
=13||
*M2/4
2b
=14
*M4/4
*met(c)
4a
4fn
2e
=15
4e
4f#
2g
=16
4r
4b
4cc#X
4r
=17
2g
2f#
=18
4g
4f#
2g
=19
4r
4r
8f#L
8f#J
8f#L
8f#J
=20
4f#
4f#
4g
8gL
8bJ
=21
4cc#X
4g
2f#
=22
4.e
8e
4f#
4e
=23
4f#
4r
4a
4b
=24
4cc
4b
4f#
4e
=25
2f#
4r
4dd
=26
4cc#X
4b
4.g
8b
=27
2cc#X
2r
=28
8cc#XL
8cc#J
8cc#L
8cc#J
4cc#
4cc#
=29
2cc#X
4cc#
4dd
=30
2ff#
4dd
4cc#X
=31
4b
4dd
4cc#X
4b
=32
4g
4g
4b
4g
=33
2f#
4r
4e
=34
2f#
4a
4b
=35
2cc
4ee
4cc
=36
2b
2f#
=37
4a
4b
4cc
4r
=38
4ee
4cc
4b
4a
=39
4b
2b
4b
=40
4b
4r
4cc
4ee
=41
2ff#
4gg
4ee
=42
4cc
4cc
4ee
4cc
=43
2b
4f#
4e
=44
2f#
4r
4aa
=45
2ffn
2ee
=46
4ee
4ee
4dd
4ffn
=47
8ddL
8dd
8.dd
16eeJk
2b
=48
2a
4b
8r
8gg
=49
4.ff#
8gg
4ff#
8ff#L
8ff#J
=50
4ff#
4ff#
4ff#
4ff#
=51
4ff#
8cccL
8bbJ
8aaL
8aaJ
8r
8aa
=52
4bb
8ggL
8ggJ
8ggL
8ff#J
8ff#L
8eeJ
=53
4ff#
4r
8ff#L
8ff#
8ee
8eeJ
=54
8eeL
8ee
8ee
8ff#J
8bL
8dd
8cc#X
8bJ
=55
4g
4f#
8eL
8eJ
8r
8f#
=56
8aL
8aJ
8r
8a
4b
8BL
8aJ
=57
8BL
8bJ
8r
8dd
4.cc#X
8dd
=58
4cc#X
8ff#L
8ddJ
8cc#L
8bJ
4g
=59
2f#
4a
4b
=60
2cc
4r
4cc
=61
2cc
4r
4cc
=62
4cc
4b
4cc
4ee
=63
4ff#
4cc
4cc
4b
=64
4a
4b
2cc
=65
2b
4cc
4b
=66
4cc
4a
2b
=67
2cc
4ee
4ff#
=68
4.gg
8bb
4gg
4ff#
=69
4ee
4cc
2cc
=70
4ee
4ff#
4cc
4cc
=71
4.b
8g
4f#
4e
=72
4f#
4aa
4bb
4bb
=73
4bb
4gg
4ff#
4ff#
=74
4ff#
4bb
4gg
4ff#
=75
4ee
4r
8.ff#L
16eeJk
4cc
=76
4cc
4ee
8.ff#L
16eeJk
4cc
=77
2b
4f#
4e
=78
2f#
4r
4r
==
*-
!!!ENC: Yukiko Yoden
!!!END: 2023/06/11
